!!!OTL: Graf und Nonne (Die Nonne)
!!!OTL-incipit:Ich stand auf hohem Berge
!!!ARE: Europa, Mitteleuropa, Deutschland (BRD), Westfalen
!!!YOR: 8, S. 284
!!    ???? aufgezeichnet
!!!SCT: Q0155t
!!!TXL: @@DE
!!!YEM: Copyright 1995, estate of Helmut Schaffrath.
**kern	**text
*ICvox	*
*M3/4	*
*k[f#]	*
*G:	*
{4d	Jch
=1	=1
4.g	stand
8g	auf
8bL	ho-
8gJ	-hem
=2	=2
4d	Ber-
4d}	-ge
{8gL	schaut
8f#J	hin-
=3	=3
4.e	-ab
8f#	ins
8gL	tie-
8eJ	-fe
=4	=4
2d}	Tal,
{8dL	da
8dJ	sah
=5	=5
4.a	ich
8cc	ein
8bL	Schiff-
8aJ	-lein
=6	=6
4g	fah-
4g}	-ren
{4g	wo-
=7	=7
4b	-rin
4a	drei
8f#L	Gra-
8f#J	-fen
=8	=8
2g}	warn,
{8dL	da
8dJ	sah
=9	=9
4.a	ich
8cc	ein
8bL	Schiff-
8aJ	-lein
=10	=10
4g	fah-
4g}	-ren
{4g	wo-
=11	=11
4b	-rin
4a	drei
8f#L	Gra-
8f#J	-fen
=12	=12
2g}	warn.
==	==
!!!AGN: Ballade, Standesunterschied, vergebliche Werbung, Liebe, Klage
!!!ONB: ESAC (Essen Associative Code) Database: BALLADE
!!!AMT: simple triple
!!!AIN: vox
!!!EED: Helmut Schaffrath
!!!EEV: 1.0
!!@@COMMENT:"1. A 40 77 Melodietypen Bd. 2 unter 4 V-V-1-1-Id)."
!!@@END:
!!!source: Deutsche Volkslieder mit ihren Melodien. Herausgegeben vom Deutschen Volksliedarchiv. Achter Teil. Freiburg/Breisgau 1988.
!!!page: 284
!!!ENC: Anna Maria Matuszewska
!!!EEV: 2025/03/10
*-	*-
